X:1
T:Gratias multi simul
T:Gratias multi simul
T:Adam Gumpelzhaimer
T:Source : Neüe Teütsche Geistliche Lieder mit 3 stimmen---Augsburg---V.Schonigk---1591. Editor : André Vierendeels (11/07/16).
T:Notes : Original clefs : C1,  C2, C4 See also the Middle German version :"Danket dem Herzen" (A.Gumpelzhaimer)
T:©
T:©
C:Adam Gumpelzhaimer
Z:©
%%score [ 1 2 3 ]
L:1/8
Q:1/4=95
M:4/4
K:C
V:1 treble nm="Soprano" snm="S"
V:2 treble nm="Alto" snm="A"
V:3 treble-8 nm="Tenor" snm="T"
V:1
 G4 G2 G2 | A4 G2 F2- | F2 E2 D2 C2 | D4 E4 :: z2 G2 G2 G2 | A4 G4 | c3 B A2 ^G2 | A4 B2 E2 | %8
w: Gra- ti- as|mul- ti si-|* mul at- que|so- li,|di- ci- mus|lo- vae|quo- ni- am be-|ni- gnus, Di-|
w: Hic dat op-|ta- tum, fa-|* ci- lem- que|vic- tum,|in po- lo|quic- quid|vo- li- tat sa-|lo- que, in|
w: Quum ca- rent|cu- ra pa-|* tri- a ci-|bo- que,|tec- ta cor-|vo- rum|te- ne- rum, De-|um- que, in-|
 F2 E2 ABcB | A4 ^G4 | A3 G A2 B2 | c8 |[M:2/4] B4 ::[M:4/4] G4 A2 FG | ABcA B2 c2- | %15
w: ves ae- ter- * * *|* nas,|Pa- tri- o- qoe|ser-|vat,|pec- to- re _|_ _ _ _ _ flam-|
w: so- lo quic- * * *|* quid,|su- a fert pro-|pin-|quo,|pon- de- ta- *|* * * * * mo-|
w: vo- cant, i- * * *|* psos,|a- li- as re-|lic-|tos,|ser- vat a- *|* * * * * lit-|
 c2 B2 !fermata!c4 :| %16
w: * * mas.|
w: * * tu.|
w: * * que.|
V:2
 E4 D2 E2 | F2 C2 C3 B, | A,2 C2 B,2 C2- | C2 B,2 C4 :: z2 E2 D2 E2 | F4 E4 | E3 D E2 ^G2 | %7
w: Gra- ti- as|mul- ti si- *|* mul at- que|_ so- li,|di- ci- mus|lo- var|quo- ni- am be-|
w: Hic dat op-|ta- tum, fa- *|* ci- lem- que|_ vic- tum,|in po- lo|quic- quid|vo- li- tat sa-|
w: Quum ca- rent|cu- ra pa- *|* tri- a ci-|* bo- que,|tec- ta cor-|vo- cum|te- ne- rum, De-|
 ^F4 G2 G2 | A2 G2 FE E2- | E2 D2 E4 | F3 E D2 G2 | F2 G4 F2 |[M:2/4] G4 ::[M:4/4] E4 F4 | %14
w: ni- gnus, Di-|ves ae- ter- * *|* * nas,|Pa- tri- o- que|ser- * *|vat,|pec- to-|
w: lo- que, in|so- lo quic- * *|* * quid,|su- a fert pro-|pin- * *|quo,|pon- de-|
w: um- que, in-|vo- cant, i- * *|* * pros,|a- li- as re-|lic- * *|tos,|ser- vat|
 C2 F3 E ED/C/ | D4 !fermata!E4 :| %16
w: re flam- * * * *|* mas.|
w: ra mo- * * * *|* tu.|
w: a- lit- * * * *|* que.|
V:3
 c4 B2 c2 | F4 E2 F2- | F2 C2 G2 A2 | G4 C4 :: z2 c2 B2 c2 | F4 c4 | A3 B c2 e2 | d4 G4 | %8
w: Gra- ti- as|si- mul at-|* queso- * *|* li,|di- ci- mus|lo- vae|quo- ni- am be-|ni- gnus,|
w: Hic dat op-|ta- tum, fa-|* ci- lem- que|vic- tum,|in po- lo|quic- quid|vo- li- tat sa-|lo- que,|
w: Quum ca- rent|cu- ra pa-|* tri- a ci-|bo- que,|tec- ta cor-|vo- cum|te- ne- rum, De-|um- que,|
 z2 G2 A3 G | F4 E4 | D3 E F2 G2 | A2 G2 A4 |[M:2/4] G4 ::[M:4/4] c4 F4 | F4 G4- | %15
w: Di- ves ae-|ter- nas,|Pa- tri- o- que|ser- * *|vat,|pec- to-|re flam-|
w: in sol- lo|quic- quid,|su- a fert pro-|pin- * *|quo,|pon- de-|ra mo-|
w: in- vo- cant|i- psos,|a- li- as re-|lic- * *|tos,|ser- vat|a- lit-|
 G4 !fermata!C4 :| %16
w: * mas.|
w: * tu.|
w: * que.|

